chrome/icons/speaker2.svg

<svg height="16" viewBox="0 151 832 723" width="16" xmlns="http://www.w3.org/2000/svg" xmlns:xlink="http://www.w3.org/1999/xlink">
  <path d="M211,704L96,704C83,704 70.6667,701.5 59,696.5C47.3333,691.5 37.0833,684.583 28.25,675.75C19.4167,666.917 12.5,656.667 7.5,645C2.5,633.333 0,621 0,608L0,416C0,403 2.5,390.667 7.5,379C12.5,367.333 19.4167,357.083 28.25,348.25C37.0833,339.417 47.3333,332.5 59,327.5C70.6667,322.5 83,320 96,320L211,320L366,164.5C370.667,159.833 375.917,156.417 381.75,154.25C387.583,152.083 393.667,151 400,151C413.667,151 425.083,155.5 434.25,164.5C443.417,173.5 448,184.833 448,198.5L448,825.5C448,832.167 446.75,838.333 444.25,844C441.75,849.667 438.333,854.75 434,859.25C429.667,863.75 424.583,867.25 418.75,869.75C412.917,872.25 406.667,873.5 400,873.5C386.667,873.5 375.333,868.833 366,859.5ZM642,796.5C642,791.167 642.917,786.75 644.75,783.25C646.583,779.75 649.333,776.167 653,772.5C689.667,736.5 718,697.167 738,654.5C758,611.833 768,564.333 768,512C768,459.667 758,412.167 738,369.5C718,326.833 689.667,287.5 653,251.5C649.333,247.833 646.583,244.25 644.75,240.75C642.917,237.25 642,232.833 642,227.5C642,218.833 645.25,211.417 651.75,205.25C658.25,199.083 665.833,196 674.5,196C679.167,196 683,196.583 686,197.75C689,198.917 692.333,201 696,204C706.333,212.667 716.417,222.5 726.25,233.5C736.083,244.5 745.333,256.167 754,268.5C762.667,280.833 770.583,293.417 777.75,306.25C784.917,319.083 791.167,331.667 796.5,344C820.167,397.333 832,453.333 832,512C832,570.667 820.167,626.667 796.5,680C791.5,691.667 785.333,704 778,717C770.667,730 762.583,742.833 753.75,755.5C744.917,768.167 735.583,780.083 725.75,791.25C715.917,802.417 706,812 696,820C692.667,822.667 689.333,824.667 686,826C682.667,827.333 678.833,828 674.5,828C665.833,828 658.25,824.917 651.75,818.75C645.25,812.583 642,805.167 642,796.5ZM384,786.5L384,237L246.5,374.5C240.167,380.833 232.667,384 224,384L96,384C87.3333,384 79.8333,387.167 73.5,393.5C67.1667,399.833 64,407.333 64,416L64,608C64,616.667 67.1667,624.167 73.5,630.5C79.8333,636.833 87.3333,640 96,640L224,640C232.667,640 240.167,643.167 246.5,649.5ZM518,674.5C518,670.167 518.583,666.5 519.75,663.5C520.917,660.5 522.833,657.333 525.5,654C541.5,632 553.917,609.75 562.75,587.25C571.583,564.75 576,539.667 576,512C576,484.333 571.583,459.25 562.75,436.75C553.917,414.25 541.5,392 525.5,370C522.833,366.667 520.917,363.5 519.75,360.5C518.583,357.5 518,353.833 518,349.5C518,340.833 521.167,333.333 527.5,327C533.833,320.667 541.333,317.5 550,317.5C560,317.5 568.333,321.5 575,329.5C585.667,341.833 595,355.25 603,369.75C611,384.25 617.75,399.333 623.25,415C628.75,430.667 632.917,446.75 635.75,463.25C638.583,479.75 640,496 640,512C640,527.667 638.583,543.75 635.75,560.25C632.917,576.75 628.75,592.917 623.25,608.75C617.75,624.583 610.917,639.833 602.75,654.5C594.583,669.167 585.333,682.5 575,694.5C568.333,702.167 560,706 550,706C541.333,706 533.833,703 527.5,697C521.167,691 518,683.5 518,674.5Z" fill="context-fill" fill-opacity="context-fill-opacity">
  </path>
</svg>

<svg xmlns="http://www.w3.org/2000/svg" width="16" height="16" viewBox="0 151 832 723"><path fill="context-fill" fill-opacity="context-fill-opacity" d="M211 704H96q-19.5 0-37-7.5t-30.75-20.75T7.5 645 0 608V416q0-19.5 7.5-37t20.75-30.75T59 327.5t37-7.5h115l155-155.5q7-7 15.75-10.25T400 151q20.5 0 34.25 13.5t13.75 34v627q0 10-3.75 18.5T434 859.25t-15.25 10.5T400 873.5q-20 0-34-14Zm431 92.5q0-8 2.75-13.25T653 772.5q55-54 85-118T768 512t-30-142.5-85-118q-5.5-5.5-8.25-10.75T642 227.5q0-13 9.75-22.25T674.5 196q7 0 11.5 1.75t10 6.25q15.5 13 30.25 29.5t27.75 35 23.75 37.75T796.5 344Q832 424 832 512t-35.5 168q-7.5 17.5-18.5 37t-24.25 38.5-28 35.75T696 820q-5 4-10 6t-11.5 2q-13 0-22.75-9.25T642 796.5m-258-10V237L246.5 374.5Q237 384 224 384H96q-13 0-22.5 9.5T64 416v192q0 13 9.5 22.5T96 640h128q13 0 22.5 9.5Zm134-112q0-6.5 1.75-11t5.75-9.5q24-33 37.25-66.75T576 512t-13.25-75.25T525.5 370q-4-5-5.75-9.5t-1.75-11q0-13 9.5-22.5t22.5-9.5q15 0 25 12 16 18.5 28 40.25a297.5 297.5 0 0 1 32.75 93.5Q640 488 640 512q0 23.5-4.25 48.25t-12.5 48.5a288.4 288.4 0 0 1-20.5 45.75q-12.25 22-27.75 40-10 11.5-25 11.5-13 0-22.5-9t-9.5-22.5"/></svg>
